X: 434
T: Miss Thompson
N: arr. Terry Traub 21-April-2002
M: 4/4
L: 1/8
R: reel
K: D
A2 |\
"D" d3 f "A"edcB | "D"A2 AB "A"AGFE |\
"D"DFAF "G"DGBG | "D"DFAF "A"GFED |\
"D" d3 f "A"edcB |
"D"A2 AB "A"AGFE |\
"D"DFAd "A"fedc | "D"d2 dd d2 :: cd |\
"A"ecec A2 de | "D"fdfd A2 ef |
"G"gfeg "D"fedf | "Em"edcB "A"A2 dc |\
"G"BAGF GABG | "D"ABAF D2 FG |\
"G"ABde "A"fedc | "D"d2 dd d2 :|

%%sep 1 1 500

